src/docs.svg

<svg width="24" height="24" viewBox="0 0 24 24" xmlns="http://www.w3.org/2000/svg" xmlns:xlink="http://www.w3.org/1999/xlink">
  <path d="M18.5 11H20v9.5c0 .786-.714 1.5-1.5 1.5h-14c-.786 0-1.5-.714-1.5-1.5v-17C3 2.714 3.714 2 4.5 2H13v1.5H4.5v17h14V11zM7 17.714h9v-1.428H7v1.428zm0-2.857h9V13.43H7v1.428zM7 12h9v-1.429H7V12zm0-4.286V6.286h5v1.428H7zM17 2.5V1h6v6h-1.5V3.429L18 7l-1-1 3.5-3.5H17z" fill="currentColor"/>
</svg>

<svg width="24" height="24" viewBox="0 0 24 24" xmlns="http://www.w3.org/2000/svg">
<path d="M18 11H20V20.5C20 21.286 19.286 22 18.5 22H4.5C3.714 22 3 21.286 3 20.5V3.5C3 2.714 3.714 2 4.5 2H13V4H5V20H18V11ZM7 17.714H16V16.286H7V17.714ZM7 14.857H16V13.43H7V14.857ZM7 12H16V10.571H7V12ZM7 7.714V6.286H12V7.714H7ZM17 2.5V1H23V7H21.5V3.429L18 7L17 6L20.5 2.5H17Z" fill="currentColor"/>
</svg>
